<?xml version="1.0" encoding="UTF-8"?>
<map version="1.10" tiledversion="1.11.2" orientation="orthogonal" renderorder="right-down" width="30" height="20" tilewidth="48" tileheight="48" infinite="0" nextlayerid="7" nextobjectid="4">
 <tileset firstgid="1" source="../tileset/2_City_Terrains_48x48.tsx"/>
 <tileset firstgid="6078" source="../tileset/1_Terrains_and_Fences_48x48.tsx"/>
 <tileset firstgid="8446" source="../tile_sheets/exterior/3_City_Props_48x48.tsx"/>
 <tileset firstgid="15614" source="4_Generic_Buildings_48x48.tsx"/>
 <tileset firstgid="22014" source="../tile_sheets/exterior/7_Villas_48x48.tsx"/>
 <tileset firstgid="23838" source="../single_sprites/single_sprites.tsx"/>
 <tileset firstgid="23845" source="../tileset/15_Police_Station_48x48.tsx"/>
 <layer id="1" name="Tile Layer 1" width="30" height="20">
  <data encoding="csv">
7871,7872,7745,7745,7745,7745,7745,7745,7711,7711,7711,7711,7711,7711,7711,7711,7711,7711,7711,7711,7711,7711,7711,7711,7711,7745,7745,7745,7745,7745,
7871,7872,7745,7745,7745,7745,7745,7745,7711,7711,7711,7711,7711,7711,7711,7711,7711,7711,7711,7711,7711,7711,7711,7711,7711,7745,7745,7745,7745,7745,
7871,7872,7745,7745,7745,7745,7745,7745,7711,7711,7711,7711,7711,7711,7711,7711,7711,7711,7711,7711,7711,7711,7711,7711,7711,7745,7745,7745,7745,7745,
7871,7872,7745,7745,7745,7745,7745,7745,7745,7745,7745,7745,7745,7710,7711,7711,7711,7712,7745,7745,7745,7745,7745,7745,7745,7745,7745,7745,7745,7745,
7871,7872,7745,7745,7745,7745,7745,7745,7745,7745,7745,7745,7745,7710,7711,7711,7711,7712,7745,7745,7745,7745,7745,7745,7745,7745,7745,7745,7745,7745,
7871,7872,7745,7745,7745,7745,7745,7745,7745,7745,7745,7745,7745,7710,7711,7711,7711,7712,7745,7745,7745,7745,7745,7745,7745,7745,7745,7745,7745,7745,
7871,7872,7745,7745,7745,7745,7745,7745,7745,7745,7745,7745,7745,7710,7711,7711,7711,7712,7745,7745,7745,7745,7745,7745,7745,7745,7745,7745,7745,7745,
7871,7872,7745,7745,7745,7745,7745,7745,7745,7745,7745,7745,7745,7710,7711,7711,7711,7712,7745,7745,7745,7745,7745,7745,7745,7745,7745,7745,7745,7745,
7871,7872,7745,7745,7678,7679,7679,7679,7680,7745,7745,7745,7745,7710,7711,7711,7711,7712,7745,7745,7745,7745,7745,7745,7745,7745,7745,7745,7745,7745,
7871,7872,7745,7745,7710,7711,7711,7711,7712,7745,7745,7745,7745,7710,7711,7711,7711,7712,7745,7745,7745,7745,7745,7745,7745,7745,7745,7745,7745,7745,
7871,7872,7745,7745,7742,7743,7743,7743,7744,7745,7745,7745,7745,7710,7711,7711,7711,7712,7745,7745,7745,7745,7711,7745,7745,7745,7745,7745,7745,7745,
7871,7872,7745,7745,7745,7745,7745,7745,7745,7745,7745,7745,7745,7710,7711,7711,7711,7712,7745,7745,7745,7745,7745,7745,7745,7745,7745,7745,7745,7745,
7871,7872,7745,7745,7745,7745,7745,7745,7745,7745,7745,7745,7745,7710,7711,7711,7711,7712,7745,7745,7745,7745,7745,7745,7745,7745,7745,7745,7745,7745,
7871,7872,7745,7745,7745,7745,7745,7745,7745,7745,7745,7745,7745,7710,7711,7711,7711,7712,7745,7745,7745,7745,7745,7745,7745,7745,7745,7745,7745,7745,
7903,7904,7679,7679,7679,7679,7679,7679,7679,7679,7679,7679,7679,7742,7743,7743,7743,7744,7679,7679,7679,7679,7679,7679,7679,7679,7679,7679,7679,7679,
2785,2785,2726,2727,2726,2726,2726,2726,2726,2785,2785,2726,2727,2726,2726,2726,2726,2726,2726,2726,2726,2726,2726,2726,2726,2726,2726,2726,2726,2727,
2785,2786,2785,2786,2785,2785,2785,2785,2785,2785,2786,2785,2786,2785,2785,2785,2785,2785,2785,2785,2785,2785,2785,2785,2785,2785,2785,2785,2785,2786,
3666,3666,3666,3666,3666,3666,3666,3666,3666,3666,3666,3666,3666,3196,3197,3198,3199,3200,3666,3666,3666,3666,3666,3666,3666,3666,3666,3666,3666,3666,
299,3013,3013,3013,3013,3013,3013,3013,3013,3013,3013,3013,3013,3255,3256,3257,3258,3259,3013,3013,3013,3013,3013,3013,3013,3013,3013,3013,3013,299,
299,299,299,299,299,299,299,299,299,299,299,299,299,299,299,299,299,299,299,299,299,299,299,299,299,299,299,299,299,299
</data>
 </layer>
 <layer id="2" name="Tile Layer 2" width="30" height="20">
  <data encoding="csv">
0,8028,0,0,0,0,0,17728,17729,17730,0,0,0,0,0,0,0,0,0,0,0,0,0,0,0,23121,23121,23121,23121,23121,
0,8060,0,0,0,0,0,17760,17761,17762,0,0,0,0,0,0,0,0,0,0,0,0,0,0,0,23121,23121,23121,23121,23121,
0,8028,0,0,23375,23376,23377,17792,17793,17794,0,0,0,0,0,0,0,0,0,0,0,0,0,0,0,23121,23121,23121,23121,23121,
0,8028,0,0,23407,23408,23409,23410,23411,23412,23247,23311,23247,0,0,0,0,0,23248,23312,23248,23312,23248,23247,23248,23153,23153,23153,23153,23153,
0,8028,0,0,23439,23440,23441,23442,23443,23444,0,0,8466,0,0,0,0,0,8466,0,0,0,0,0,0,23152,23152,23152,23153,23125,
0,8028,0,0,23471,23472,23473,23474,23475,23476,0,0,8498,0,0,0,0,0,8498,0,0,0,0,0,0,0,0,0,0,0,
0,8028,0,0,23503,23504,23505,23506,23507,8531,8532,8533,8530,0,0,0,0,0,8530,0,0,0,0,0,0,0,0,0,9174,9175,
0,8028,0,0,0,0,0,0,0,8563,8564,8565,8562,0,0,0,0,0,8562,0,0,0,0,0,0,0,0,0,9206,9207,
0,8028,0,0,0,0,0,0,0,0,0,0,0,0,0,0,0,0,0,0,0,0,0,0,0,0,0,0,9238,9239,
0,8028,0,0,0,0,0,0,0,0,0,0,0,0,0,0,0,0,0,0,0,0,0,0,0,0,0,0,0,0,
0,8060,0,0,0,0,0,0,0,0,0,0,0,0,0,0,0,0,0,0,0,0,0,0,0,0,0,0,0,0,
0,8028,0,0,0,0,0,0,0,0,0,0,0,0,0,0,0,0,0,0,0,0,0,0,0,0,0,0,0,0,
0,8028,0,0,0,0,0,0,0,0,0,0,0,0,0,0,0,0,0,0,0,0,0,0,0,0,0,0,0,0,
0,8028,0,0,0,0,0,0,0,0,0,0,0,0,0,0,0,0,0,0,0,0,0,0,0,0,0,0,0,0,
8020,8086,8021,8021,8021,8021,8021,8021,8021,8021,8085,8085,8116,0,0,0,0,0,8118,8085,8085,8021,8021,8021,8021,8021,8021,8021,8021,8022,
0,0,0,0,0,0,0,0,0,0,0,0,0,0,0,0,0,0,0,0,0,0,0,0,0,0,0,0,0,0,
0,25376,25377,25378,25379,25380,25376,25377,25378,25379,25380,0,0,0,0,0,0,0,0,0,0,0,0,0,0,0,0,0,0,0,
0,25408,25409,25410,25411,25412,25408,25409,25410,25411,25412,0,0,0,0,0,0,0,0,0,0,0,0,0,0,0,0,0,0,0,
0,25440,25441,25442,25443,25444,25440,25441,25442,25443,25444,0,0,0,0,0,0,0,0,0,0,0,0,0,0,0,0,0,0,0,
0,0,0,0,0,0,0,0,0,0,0,0,0,0,0,0,0,0,0,0,0,0,0,0,0,0,0,0,0,0
</data>
 </layer>
 <layer id="3" name="Tile Layer 3" width="30" height="20">
  <data encoding="csv">
10317,10318,0,0,0,0,0,0,17729,17730,17739,17740,17741,17742,17744,17745,17746,17747,17742,17742,17739,17740,17741,17747,17748,0,0,0,0,0,
10349,10350,0,0,0,0,0,0,17761,17762,17771,17772,17773,17774,17776,17777,17778,17779,17774,17774,17771,17772,17773,17779,17780,0,0,0,0,0,
0,0,0,0,23375,23376,23377,23378,23379,23380,17803,17804,17805,17806,17808,17809,17810,17811,17806,17806,17803,17804,17805,17811,17812,0,0,0,0,0,
0,0,0,0,23407,23408,23409,23410,23411,23412,0,0,0,0,0,0,0,0,0,0,0,0,0,0,0,0,0,0,0,0,
0,0,0,0,23439,23440,23441,23442,23443,23444,0,0,0,0,0,0,0,0,0,0,0,0,0,0,0,0,0,0,0,0,
0,0,0,0,23471,23472,23473,23474,23475,23476,0,0,0,0,0,0,0,0,0,0,0,0,0,0,0,0,0,0,0,0,
0,0,0,0,23503,23504,23505,23506,23507,23508,8532,8533,0,0,0,0,0,0,0,8531,8532,8533,8531,8532,8533,0,0,0,0,0,
0,0,0,0,23535,23536,23537,23538,23539,23540,8564,8565,0,0,0,0,0,0,0,8563,8564,8565,8563,8564,8565,0,0,0,0,0,
9752,9753,0,0,0,22681,22682,22683,0,0,0,0,0,0,0,0,0,0,0,0,0,0,0,0,0,0,0,0,0,0,
9784,9785,0,0,0,22713,22714,22715,0,0,0,0,0,0,0,0,0,0,0,0,0,0,9353,9354,0,0,0,0,0,0,
9656,9657,0,0,0,0,0,0,0,0,0,0,8466,0,0,0,0,0,8466,0,0,0,9385,9386,0,0,0,0,0,0,
9688,9689,0,0,0,0,0,0,0,0,0,0,8498,0,0,0,0,0,8498,0,0,0,9417,9418,0,0,0,0,0,0,
9720,9721,0,0,0,0,0,0,0,0,0,0,8530,0,0,0,0,0,8530,0,0,0,0,0,0,0,0,0,0,0,
0,0,0,0,0,0,0,0,0,0,0,0,8562,0,0,0,0,0,8562,0,0,0,0,0,0,0,0,0,9104,9105,
0,0,0,0,0,0,0,0,0,0,0,8481,0,0,0,0,0,0,9263,0,0,0,0,0,0,0,0,0,9136,9137,
0,0,0,0,0,0,0,0,0,0,0,8513,0,0,0,0,0,0,9295,0,0,0,0,0,0,0,0,0,9168,9169,
0,0,0,0,0,0,0,0,0,0,0,8545,0,0,0,0,0,0,0,0,0,0,0,0,0,9012,0,0,0,0,
0,0,0,0,0,0,0,0,0,0,0,0,0,0,0,0,0,0,0,0,0,0,0,0,0,0,0,0,0,0,
0,0,0,0,0,0,0,0,0,0,0,0,0,0,0,0,0,0,0,0,0,0,0,0,0,0,0,0,0,0,
0,0,0,0,0,0,0,0,0,0,0,0,0,0,0,0,0,0,0,0,0,0,0,0,0,0,0,0,0,0
</data>
 </layer>
 <group id="4" name="System">
  <layer id="5" name="collision" width="30" height="20" opacity="0.53" tintcolor="#ff1c33">
   <data encoding="csv">
0,23844,0,0,0,0,0,23844,23844,23844,23844,23844,23844,23844,23844,23844,23844,23844,23844,23844,23844,23844,0,23844,23844,0,0,0,0,0,
0,23844,0,0,0,0,0,23844,23844,23844,23844,23844,23844,23844,23844,23844,23844,23844,23844,23844,23844,23844,23844,23844,23844,0,0,0,0,0,
0,23844,0,0,0,0,0,23844,23844,23844,23844,23844,23844,23844,23844,23844,23844,23844,23844,23844,23844,23844,23844,23844,23844,0,0,0,0,0,
0,23844,0,0,0,0,0,0,0,0,0,0,0,0,0,0,0,0,0,0,0,0,0,0,0,0,0,0,0,0,
0,23844,0,0,0,0,0,0,0,0,0,0,0,0,0,0,0,0,0,0,0,0,0,0,0,0,0,0,0,0,
0,23844,0,0,0,0,0,0,0,0,0,0,0,0,0,0,0,0,0,0,0,0,0,0,0,0,0,0,0,0,
0,23844,0,0,0,0,23844,23844,23844,0,0,0,0,0,0,0,0,0,0,0,0,0,0,0,0,0,0,0,0,0,
0,23844,0,0,0,0,0,0,0,23844,23844,23844,23844,0,0,0,0,0,23844,23844,23844,23844,23844,23844,23844,0,0,0,0,0,
0,23844,0,0,0,0,0,0,0,0,0,0,0,0,0,0,0,0,0,0,0,0,0,0,23844,0,0,0,23844,23844,
0,23844,0,0,0,23844,23844,23844,0,0,0,0,0,0,0,0,0,0,0,0,0,0,0,0,0,0,0,0,0,0,
0,23844,0,0,0,0,0,0,0,0,0,0,0,0,0,0,0,0,0,0,0,0,23844,23844,0,0,0,0,0,0,
0,23844,0,0,0,0,0,0,0,0,0,0,0,0,0,0,0,0,0,0,0,0,23844,23844,0,0,0,0,0,0,
0,23844,0,0,0,0,0,0,0,0,0,0,0,0,0,0,0,0,0,0,0,0,0,0,0,0,0,0,0,0,
0,23844,0,0,0,0,0,0,0,0,0,0,23844,0,0,0,0,0,23844,0,0,0,0,0,0,0,0,0,0,0,
23844,23844,23844,23844,23844,23844,23844,23844,23844,23844,23844,23844,23844,0,0,0,0,0,23844,23844,23844,23844,23844,23844,23844,23844,23844,23844,23844,23844,
0,0,0,0,0,0,0,0,0,0,0,0,0,0,0,0,0,0,23844,0,0,0,0,0,0,0,0,0,23844,23844,
0,0,0,0,0,0,0,0,0,0,0,23844,0,0,0,0,0,0,0,0,0,0,0,0,0,0,0,0,0,0,
0,0,0,0,0,0,0,0,0,0,0,0,0,0,0,0,0,0,0,0,0,0,0,0,0,0,0,0,0,0,
0,0,0,0,0,0,0,0,0,0,0,0,0,0,0,0,0,0,0,0,0,0,0,0,0,0,0,0,0,0,
0,0,0,0,0,0,0,0,0,0,0,0,0,0,0,0,0,0,0,0,0,0,0,0,0,0,0,0,0,0
</data>
  </layer>
 </group>
</map>
